src/pages/screens/Workflow/images/Arrows.svg

<svg width="755" height="204" fill="none" xmlns="http://www.w3.org/2000/svg"><path d="M1.828 204v-91.5a5 5 0 0 1 5-5H186.84m0 0V204m0-96.5h188.149m0 0V204m0-96.5h-.142m189.858 0V204m0-96.5h183.149a5 5 0 0 1 5 5V204m-188.149-96.5H374.847m0 0V0" stroke="url(#a)" stroke-width="3"/><defs><linearGradient id="a" x1="1287.51" y1="48.25" x2="-189.457" y2="48.25" gradientUnits="userSpaceOnUse"><stop stop-color="#266EF9"/><stop offset="1" stop-color="#6219CF"/></linearGradient></defs></svg>

<svg width="755" height="204" viewBox="0 0 755 204" fill="none" xmlns="http://www.w3.org/2000/svg">
<path d="M1.82764 204V112.5C1.82764 109.739 4.06621 107.5 6.82764 107.5L186.84 107.5M186.84 107.5V204M186.84 107.5L374.989 107.5M374.989 107.5V204M374.989 107.5H374.847M564.705 107.5V204M564.705 107.5L747.854 107.5C750.615 107.5 752.854 109.739 752.854 112.5V204M564.705 107.5L374.847 107.5M374.847 107.5V0" stroke="url(#paint0_linear_1_318)" stroke-width="3"/>
<defs>
<linearGradient id="paint0_linear_1_318" x1="1287.51" y1="48.25" x2="-189.457" y2="48.25" gradientUnits="userSpaceOnUse">
<stop stop-color="#266EF9"/>
<stop offset="1" stop-color="#6219CF"/>
</linearGradient>
</defs>
</svg>
